X: 22073
T: Knocknaboul, The
R: polka
M: 2/4
K: Gmajor
|:GB B/c/B/A/|GB BA|FA AB/A/|FA [D2G,2]|
GB BA|GB [fd]e|fB cA|1 [G2 G,2] G/A/G/D/:|2 [G2 G,2] GB/d/||
|:g>a gd|ga a/b/a/g/|fd [fd]d|fg af|
g2 ~g2|gb a/b/a/g/|fB cA|1 G2 [G G,]B/d/:|2 G2 (3B/c/B/ A||
~B2 Bc|d(3c/d/c/ A>G|F(3G/F/E/ FG|AB c/B/A|
B(3c/B/A/ Bc|d(3c/d/c/ Ag|fB cA|G2 (3B/c/B/A|
B>A Bc|d>c AG|~F>E FG|AB c/B/A|
B>A Bc|d>c Ag|fB cA|G2 G/A/G/D/||

